img/svg/check.svg

<svg width="19" height="13" viewBox="0 0 19 13" fill="none" xmlns="http://www.w3.org/2000/svg">
<path fill-rule="evenodd" clip-rule="evenodd" d="M18.416 0.292893C18.8199 0.683417 18.8199 1.31658 18.416 1.70711L7.03947 12.7071C6.63558 13.0976 5.98074 13.0976 5.57685 12.7071L0.405702 7.70711C0.00181022 7.31658 0.00181022 6.68342 0.405702 6.29289C0.809594 5.90237 1.46443 5.90237 1.86832 6.29289L6.30816 10.5858L16.9534 0.292893C17.3573 -0.0976311 18.0121 -0.0976311 18.416 0.292893Z" fill="#0D4061"/>
</svg>

<svg width="19" height="13" viewBox="0 0 19 13" fill="none" xmlns="http://www.w3.org/2000/svg"><path fill-rule="evenodd" clip-rule="evenodd" d="M18.416.293a.977.977 0 0 1 0 1.414l-11.377 11a1.06 1.06 0 0 1-1.462 0l-5.171-5a.977.977 0 0 1 0-1.414 1.06 1.06 0 0 1 1.462 0l4.44 4.293L16.953.293a1.06 1.06 0 0 1 1.463 0z" fill="#0D4061"/></svg>
